X: 1
T: Return from India
O: Cape Breton
S: Winston 'Scotty' Fitzgerald
N: This is the Cape Breton version; Kerr has it with the parts interchanged.
Z: 2015 John Chambers <jc:trillian.mit.edu>
R: reel
M: 4/4
K: A
L: 1/8
e |\
"A"agae agae | "Bm"dcBA "E7"GBBg |\
"A"agae agae | "D"fe"E7"fg "A"a2 ||
(3efg |\
"A"af"E"ge "D"fd"A"ec | "Bm"dB"A"cA "E7"GBBd |\
"A"ceAe "D"dfB[aA] | "E7"gefg "A"a3 |]
|: e |\
"A"dcBA cAce | "Bm"dcBA "E7"GBBe |\
"A"dcBA cAeA | "Bm"fA"E"gA "A"a3 :|
%%center Book48/Return_from_India_CB_JH-A-16-3.abc

%%sep 1 1 500
%%sep 1 1 500

